assets/icons/24px/stroke/mouse-rectangular-24px.svg

<svg width="24" height="24" viewBox="0 0 24 24" fill="none" xmlns="http://www.w3.org/2000/svg">
<path fill-rule="evenodd" clip-rule="evenodd" d="M5 15.0706L5 8.92943C4.99997 7.5753 4.99994 6.45869 5.11875 5.57493C5.2435 4.6471 5.51547 3.82768 6.17157 3.17157C6.82768 2.51546 7.64711 2.24349 8.57494 2.11875C9.4587 1.99993 10.5753 1.99996 11.9295 2L12.0705 2C13.4247 1.99996 14.5413 1.99993 15.4251 2.11875C16.3529 2.24349 17.1723 2.51546 17.8284 3.17157C18.4845 3.82768 18.7565 4.6471 18.8812 5.57493C19.0001 6.45869 19 7.5753 19 8.92942L19 15.0706C19 16.4247 19.0001 17.5413 18.8813 18.4251C18.7565 19.3529 18.4845 20.1723 17.8284 20.8284C17.1723 21.4845 16.3529 21.7565 15.4251 21.8812C14.5413 22.0001 13.4247 22 12.0706 22L11.9294 22C10.5753 22 9.4587 22.0001 8.57494 21.8812C7.64711 21.7565 6.82768 21.4845 6.17158 20.8284C5.51547 20.1723 5.2435 19.3529 5.11875 18.4251C4.99994 17.5413 4.99997 16.4247 5 15.0706ZM11 4.00188L11 8.5C11 9.05228 11.4477 9.5 12 9.5C12.5523 9.5 13 9.05228 13 8.5L13 4.00188C13.9183 4.00712 14.6077 4.02685 15.1586 4.10092C15.8646 4.19584 16.1916 4.36321 16.4142 4.58578C16.6368 4.80835 16.8042 5.13538 16.8991 5.84143C16.9979 6.57625 17 7.55751 17 9L17 15C17 16.4425 16.9979 17.4237 16.8991 18.1586C16.8042 18.8646 16.6368 19.1916 16.4142 19.4142C16.1916 19.6368 15.8646 19.8042 15.1586 19.8991C14.4238 19.9979 13.4425 20 12 20C10.5575 20 9.57625 19.9979 8.84143 19.8991C8.13538 19.8042 7.80836 19.6368 7.58579 19.4142C7.36322 19.1916 7.19585 18.8646 7.10092 18.1586C7.00213 17.4237 7 16.4425 7 15L7 9C7 7.55751 7.00213 6.57625 7.10092 5.84143C7.19585 5.13538 7.36322 4.80836 7.58579 4.58578C7.80836 4.36321 8.13538 4.19584 8.84143 4.10092C9.3923 4.02685 10.0817 4.00712 11 4.00188Z" fill="white"/>
</svg>

<svg width="24" height="24" fill="none" xmlns="http://www.w3.org/2000/svg"><path fill-rule="evenodd" clip-rule="evenodd" d="M5 15.07V8.93c0-1.355 0-2.471.119-3.355.125-.928.396-1.747 1.053-2.403.656-.657 1.475-.929 2.403-1.053.884-.12 2-.119 3.355-.119h.14c1.355 0 2.471 0 3.355.119.928.124 1.747.396 2.403 1.053.657.656.928 1.475 1.053 2.403.12.884.119 2 .119 3.354v6.142c0 1.354 0 2.47-.119 3.354-.125.928-.396 1.747-1.053 2.403-.656.657-1.475.928-2.403 1.053-.884.12-2 .119-3.354.119h-.142c-1.354 0-2.47 0-3.354-.119-.928-.125-1.747-.396-2.403-1.053-.657-.656-.928-1.475-1.053-2.403-.12-.884-.119-2-.119-3.354zm6-11.068V8.5a1 1 0 1 0 2 0V4.002c.918.005 1.608.025 2.159.099.706.095 1.033.262 1.255.485.223.222.39.55.485 1.255C16.998 6.576 17 7.558 17 9v6c0 1.442-.002 2.424-.1 3.159-.096.706-.263 1.033-.486 1.255-.222.223-.55.39-1.255.485-.735.099-1.716.101-3.159.101-1.443 0-2.424-.002-3.159-.1-.706-.096-1.033-.263-1.255-.486-.223-.222-.39-.55-.485-1.255C7.002 17.424 7 16.443 7 15V9c0-1.442.002-2.424.1-3.159.096-.706.263-1.033.486-1.255.222-.223.55-.39 1.255-.485.551-.074 1.24-.094 2.159-.1z" fill="#fff"/></svg>
